X:1
T:Villoldo Que Haces Chamberguito
%%score 1 2
L:1/4
Q:1/4=80
M:2/4
K:A
%%stretchlast true
 z/ c/4d/4 ^d/4e/4f/4c/4 | e/4=d/4 z/4 B/4 G/4 z/4 E/4 z/4 | z/ e/ ^d/=d/ | c/ z/ e |
 z/ c/4d/4 ^d/4e/4f/4c/4 | e/4=d/4 z/4 B/4 G/4 z/4 E/4 z/4 | z/ e/ ^d/=d/ | c/ z/ e |
 z/ c/4d/4 ^d/4e/4f/4e/4 | =g/4f/4 z/4 e/4 c/4 z/4 ^A/4 z/4 | z/ f/ c/e/ | d/ z/ f |
 z/ F/4^E/4 F/4G/4A/4B/4 | c/4A/4 z/4 =E/4 e | z/4 E/4^D/4E/4 F/4E/4G/4E/4 | A/ z/ a/ z/ |
 z/4 c/4=c/4^c/4 a/4c/4g/4c/4 | f/4c/4 z/4 A/4 F | z/4 C/4=C/4^C/4 D/4C/4=C/4^C/4 | A/4G/4 z/4 =G/4 ^G |
 z/4 c/4=c/4^c/4 b/4c/4a/4c/4 | g/4^e/4 z/4 c/4 B | z/4 C/4=C/4^C/4 D/4^D/4=E/4^E/4 | G/4F/4 z/4 ^E/4 F |
 z/4 c/4=c/4^c/4 a/4c/4g/4c/4 | f/4c/4 z/4 A/4 F | z/4 C/4=C/4^C/4 D/4C/4=C/4^C/4 | A/4G/4 z/4 =G/4 ^G |
 z/4 c/4=c/4^c/4 b/4c/4a/4c/4 | g/4^e/4 z/4 c/4 B | z/4 C/4=C/4^C/4 D/4^D/4=E/4^E/4 | F/ z/ (3:2:2f/ z |
 (3:2:2z/ [ef]/4e/4^d/4 e/ z/4 ^e/4 | f/4 (12:7:2z ^e/4 f | z/4 =e/4d/4B/4 ^A/4B/4 z/4 =c/4 | ^c/4 (12:7:2z =c/4 (6:5:2^c z/4 |
 (3:2:2z/ [AB]/4A/ G/ z/4 F/4 | D/4G/D/4 A/G/ | (3:2:2z/ [GA]/4G/ F/ z/4 E/4 | C/4G/C/4 F/E/ |
 (3:2:2z/ [ef]/4e/4^d/4 e/ z/4 ^e/4 | f/4 (12:7:2z ^e/4 f | z/4 =e/4d/4B/4 ^A/4B/4 z/4 =c/4 | ^c/4 (12:7:2z =c/4 (6:5:2^c z/4 |
 (3:2:2z/ [AB]/4A/ G/ z/4 F/4 | E/ z/ e/ z/ | z/4 d/4B/4G/4 c/4 z/4 B/4 z/4 | A/ z3/2 |
 z/4 c/4=c/4^c/4 a/4c/4g/4c/4 | f/4c/4 z/4 A/4 F | z/4 C/4=C/4^C/4 D/4C/4=C/4^C/4 | A/4G/4 z/4 =G/4 ^G |
 z/4 c/4=c/4^c/4 b/4c/4a/4c/4 | g/4^e/4 z/4 c/4 B | z/4 C/4=C/4^C/4 D/4^D/4=E/4^E/4 | G/4F/4 z/4 ^E/4 F |
 z/4 c/4=c/4^c/4 a/4c/4g/4c/4 | f/4c/4 z/4 A/4 F | z/4 C/4=C/4^C/4 D/4C/4=C/4^C/4 | A/4G/4 z/4 =G/4 ^G |
 z/4 c/4=c/4^c/4 b/4c/4a/4c/4 | g/4^e/4 z/4 c/4 B | z/4 C/4=C/4^C/4 D/4^D/4=E/4^E/4 | F/ z/ f/ z/ |
 z/ c/4d/4 ^d/4e/4f/4c/4 | e/4=d/4 z/4 B/4 G/4 z/4 E/4 z/4 | z/ e/ ^d/=d/ | c/ z/ e |
 z/ c/4d/4 ^d/4e/4f/4c/4 | e/4=d/4 z/4 B/4 G/4 z/4 E/4 z/4 | z/ e/ ^d/=d/ | c/ z/ e |
 z/ c/4d/4 ^d/4e/4f/4e/4 | =g/4f/4 z/4 e/4 c/4 z/4 ^A/4 z/4 | z/ f/ c/e/ | d/ z/ f |
 z/ F/4^E/4 F/4G/4A/4B/4 | c/4A/4 z/4 =E/4 e | z/4 E/4^D/4E/4 F/4E/4G/4E/4 | A/ z/ a/ z/ |]


